X:1
T:Lex cum Mose
T:Daniel Friderici
T:Source : Bicinia sacra---Rostock---J.Richelius---1642. Editor : André Vierendeels (14/07/17).
T:Notes : Original clefs : G2, G2 Original note values have been quartered in 3-beat measures Editorial accidentals above the staf 
T:Lex cum Mose
T:©
T:©
T:©
C:Daniel Friderici
Z:©
%%score [ 1 2 ]
L:1/8
Q:1/4=120
M:6/4
K:F
V:1 treble nm="Soprano 1" snm="S 1"
V:2 treble nm="Soprano 2" snm="S 2"
V:1
 c4 d2 e2 c2 f2 | c4 z2 c4 e2 | f2 e2 d2 c2 g2 d2 | e3 f g2 c4 f2 | c3 d ec e3 f g2 | %5
w: Lex cum Mo- se va-|le, lex cum|Mo- se va- le, va- *|* * le, lex cum|Mo- se va- * * * le,|
 cB cd e2 ed ef g2 |[M:3/4] cB cd ef |[M:2/2] g4 z2 e2 | a6 a2 | g4 e4 | f2 g2 a2 g2 | %11
w: va- * * * * le, _ _ _ _|va- * * * * *|le: *|prae- vi-|us, dux|prae- * * *|
 f2 e2 d2 c2 | B2 A2 G2 F2 | G4 G4 | A4 A4 | BABc dcde | f6 ed | e2 dc d4 |[M:2/4] c4 :: z2 c2 | %20
w: ||* vi-|us, Jo-|han- * * * * * * *|||nes:|Ad|
[M:2/2] d4 c2 c2 | B4 A4 | G6 G2 | F2 c4 A2 | z4 c2 A2 | F3 G A2 B2 | c2 d2 e2 f2 | g2 a2 g2 f2 | %28
w: Chri- stum ex|cae- co|car- ce-|re mon- strat,|mon- strat|i- * * *|||
 e2 f2 g4 | f4 FGAB | cdef gagf | ec f3 e/d/ e2 | f8 :| %33
w: |ter, i- * * *|||ter.|
V:2
 z12 | F4 G2 A2 F2 c2 | F2 c2 d2 e2 c2 f2 | c4 z2 g4 d2 | e3 f g2 cB cd e2 | ed ef g2 cB cd e2 | %6
w: |Lex cum Mo- se va-|le, lex cum Mo- se va-|le, lex cum|Mo- se va- le, _ _ _ _|va- * * * * le, _ _ _ _|
[M:3/4] ed ef g2 |[M:2/2] c4 z2 g2 | f6 f2 | e4 g4 | a2 g2 f2 e2 | d2 c2 B2 A2 | G2 F2 G2 A2 | %13
w: va- * * * *|le: Dux|prae- vi-|us, dux|prae- * * *|||
 B2 c2 d2 B2 | c4 c4 | dcde f2 c2 | FGAB c4- | c2 =BA B4 |[M:2/4] c4 :: z2 A2 |[M:2/2] B4 A2 A2 | %21
w: |* vi-|us, _ _ _ _ Jo-|han- * * * *||nes:|Ad|Chri- stum ex|
 G4 c4 | B6 B2 | A2 A3 B cd | c2 A2 z4 | c2 A2 F2 G2 | A2 B2 c2 d2 | e2 f2 g2 a2 | g2 f3 e/d/ e2 | %29
w: cae- co|car- ce-|re mon- * * *|* strat,|mon- strat i- *||||
 f2 FG ABcd | efga gfef | g2 a2 g4 | f8 :| %33
w: ter, i- * * * * *|||ter.|

